symbols/web/clean_hands/materialsymbolsoutlined/clean_hands_wght300gradN25fill1_40px.svg

<svg xmlns="http://www.w3.org/2000/svg" height="40" width="40"><path d="m28.542 14.583-.917-2-2-.916 2-.917.917-2 .958 2 1.958.917-1.958.916Zm4.666 7.917q-1.125 0-1.896-.792-.77-.791-.77-1.916 0-.792.541-2 .542-1.209 2.125-3.5 1.625 2.25 2.167 3.479.542 1.229.542 2.021 0 1.125-.792 1.916-.792.792-1.917.792Zm-8.875-1.958L14.875 17H9.083q.459-2.375 2.209-4.083 1.75-1.709 4.375-2.209V6h-2.5V4h8.5q1.083 0 2.062.292.979.291 1.854.833l-1.458 1.458q-.542-.25-1.146-.416Q22.375 6 21.667 6h-4v4.708q2.958.5 4.812 2.667t1.854 4.958Zm-1.208 15.541-12.792-3.708V19.958h3.917l10.292 3.792q1 .333 1.687 1.188.688.854.688 2.479h-2.084q-1.875 0-2.895-.105-1.021-.104-1.938-.437l-3.125-1.083-.5 1.166 3.375 1.167q.792.292 1.875.396 1.083.104 2.208.104h8q2.042 0 2.771.854.729.854.729 2.104v.709ZM2.75 34.625V19.958h5.583v14.667Z"/></svg>

<svg xmlns="http://www.w3.org/2000/svg" height="40" width="40"><path d="M28.542 14.583 27.625 12.583 25.625 11.667 27.625 10.75 28.542 8.75 29.5 10.75 31.458 11.667 29.5 12.583ZM33.208 22.5Q32.083 22.5 31.312 21.708Q30.542 20.917 30.542 19.792Q30.542 19 31.083 17.792Q31.625 16.583 33.208 14.292Q34.833 16.542 35.375 17.771Q35.917 19 35.917 19.792Q35.917 20.917 35.125 21.708Q34.333 22.5 33.208 22.5ZM24.333 20.542 14.875 17H9.083Q9.542 14.625 11.292 12.917Q13.042 11.208 15.667 10.708V6H13.167V4H21.667Q22.75 4 23.729 4.292Q24.708 4.583 25.583 5.125L24.125 6.583Q23.583 6.333 22.979 6.167Q22.375 6 21.667 6H17.667V10.708Q20.625 11.208 22.479 13.375Q24.333 15.542 24.333 18.333ZM23.125 36.083 10.333 32.375V19.958H14.25L24.542 23.75Q25.542 24.083 26.229 24.938Q26.917 25.792 26.917 27.417H24.833Q22.958 27.417 21.938 27.312Q20.917 27.208 20 26.875L16.875 25.792L16.375 26.958L19.75 28.125Q20.542 28.417 21.625 28.521Q22.708 28.625 23.833 28.625H31.833Q33.875 28.625 34.604 29.479Q35.333 30.333 35.333 31.583V32.292ZM2.75 34.625V19.958H8.333V34.625Z"/></svg>
